X: 27504
T: Mom's
R: jig
M: 6/8
K: Adorian
|:EAA AGA|B2A A2G|EAA ABc|~B3 BAG|
EAA AGA|B2A Aaf|~g3 gfe|dBG BAG:|
|:AaA ~g3|fed edB|AaA ~g2e|dBG BAG|
AaA ~g3|fed edB|ABc Bcd|cde dBG:|
~E3 ABd|~B2A ~A2G|~E3 ABc|~B3 BAG|
~E3 ABd|~B2A AGF|~G3 GFE|D[B,B][G,G] [G,B][B,A][DG]|
E2A ABc|~B2A ~A2G|E2A ABc|~B3 BAG|
E2A ABc|~B2A AGF|~g3 gfe|dBG BAG||
|:AaA ~g3|fed edB|AaA ~g2e|dBG BAG|
AaA ~g3|fed edB|ABc Bcd|cde dBG:|

